!!!SOCIAL_FUNCTION:	songs connected with legends
!!!PDT:	1929
!!!OTL: No_14_Song_With_Which_Two_Boys_Killed_Their_Grandmother.krn
!!!REG: Southwest
!!!LANG: Non-Tone
!!!LING_GROUP: Uto-Aztecan
**kern
*staff1
*clefF4
*k[]
*M3/4
4E-\
=1
2c\
8c\L
8B-\J
=2
4A-\
4F\
12A-\L
12F\
12F\J
=3
2F\
8.B-\L
16A-\Jk
=4
2B-\
4A-\
=5
4E-\
4C/
12E-/L
12C/
12C/J
=6
2C/
8.F\L
16F\Jk
=7
2F\
8G\L
8F\J
=8
4E-;\
8C/L
8BB-/J
12G\L
12F\
12F\J
=9
2.F\
==
*-
